teeny/solid/nodejs.svg

<svg width="15" height="15" viewBox="0 0 15 15" fill="none" xmlns="http://www.w3.org/2000/svg">
<path fill-rule="evenodd" clip-rule="evenodd" d="M14 4.21281L7.5 0.421143L1 4.21281V10.7872L2.00634 11.3742L4.06264 10.5422C4.62921 10.313 5.00004 9.7629 5.00004 9.15171V4H6.00004V9.15171C6.00004 10.1704 5.382 11.0871 4.43772 11.4692L3.09826 12.0112L7.5 14.5788L14 10.7872V4.21281ZM7 6C7 4.89543 7.89543 4 9 4H10.1667C11.1792 4 12 4.82081 12 5.83333V6H11V5.83333C11 5.3731 10.6269 5 10.1667 5H9C8.44772 5 8 5.44772 8 6C8 6.55228 8.44772 7 9 7H10C11.1046 7 12 7.89543 12 9C12 10.1046 11.1046 11 10 11H9C7.89543 11 7 10.1046 7 9H8C8 9.55228 8.44772 10 9 10H10C10.5523 10 11 9.55228 11 9C11 8.44772 10.5523 8 10 8H9C7.89543 8 7 7.10457 7 6Z" fill="black"/>
</svg>

<svg viewBox="0 0 15 15" xmlns="http://www.w3.org/2000/svg"><path fill-rule="evenodd" d="M14 4.21L7.5.41 1 4.2v6.57l1 .58 2.05-.84c.56-.23.93-.78.93-1.4V3.95h1V9.1c0 1.01-.62 1.93-1.57 2.31l-1.34.54 4.4 2.56 6.5-3.8V4.13ZM7 5.99c0-1.11.89-2 2-2h1.16c1.01 0 1.83.82 1.83 1.83v.16h-1v-.17c0-.47-.38-.84-.84-.84H8.98c-.56 0-1 .44-1 1 0 .55.44 1 1 1h1c1.1 0 2 .89 2 2 0 1.1-.9 2-2 2h-1c-1.11 0-2-.9-2-2h1c0 .55.44 1 1 1h1c.55 0 1-.45 1-1 0-.56-.45-1-1-1h-1c-1.11 0-2-.9-2-2Z"/></svg>
